X: 90
T:Lorna's Reel
% Nottingham Music Database
S:Bryon Bonnett, via PR
M:4/4
L:1/4
K:G
A|"G"B/2dB/2 AG|B/2d/2B/2d/2 AG|"G"B/2^A/2B =AG|"C"C4|"D"F/2AF/2 ED|
F/2A/2F/2A/2 ED|"D"FF E^D|"G"D2 -"D7"D2|"G"B/2dB/2 AG|B/2d/2B/2d/2 AG|
"G"B/2^A/2B =AG|"C"C4|"D"F/2AF/2 ED|F/2A/2F/2A/2 ED|"D7"_BB A_A|"G7"G4||
"C"E/2G/2c ec|E/2G/2c ec|"G"d/2^c/2d BG|D4|"A"^c/2=c/2^c A/2^G/2A|
"A"^c/2=c/2^c "A7"A/2B/2c|"D7"dc AF|D^D E=D|"G"B/2dB/2 AG|B/2d/2B/2d/2 AG||
"G"B/2^A/2B =AG|"C"C4|"D"F/2AF/2 ED|F/2A/2F/2A/2 ED|"D7"_BB A_A|"G7"G4||


